X:1
T:Title
%%score { ( 1 3 ) | ( 2 4 ) }
L:1/8
M:3/4
K:E
V:1 treble nm="Grand Piano"
V:3 treble 
V:2 bass 
V:4 bass 
V:1
 z2 z2[Q:1/4=112] E2 | G4 GF | E4 z G | B4 cB | G4 z G | B4 B2 | c2 B2 G2 | [DF]6- | [DF]4 E2 | %9
 G4 GA | [GB]4 [GB]2 | [Ee]3 [Ee] [EAc]2 | [GB]4 [G,E]2 | [EG]3 [EG] [EG]2 | [EG] E3 F2 | E6- | %16
[M:2/4] E4 |[M:1/4] E2 |[M:3/4] A3 A A2 | A4 EF | G3 G G2 | G4 EG | [GB]3 [GB] [GB]2 | %23
 [Ac]2 [GB]2 [EG]2 | [DF]6- | [DF]4 EF | G3 G G2 | E4 G[GB] | [Ee]3 [Ee] [Ac]2 | [GB]4 E2 | %30
 [EG]3 [EG] [EG]2 | [EG] E3 F2 | E6- |[M:2/4] E4 |] %34
V:2
 z2 z2 [E,G,]2 | [E,B,E]4 [E,B,E][E,A,B,] | [E,G,B,]4 G,B, | [E,G,E]4 [E,E]-[E,G,E] | %4
 [E,B,E]4 E,-[E,B,] | [E,G,E]4 [E,G,E]2 | [E,A,E]2 [E,G,E]2 [E,B,E]2 | [B,,B,]6- | %8
 [B,,B,]4 [E,G,]2 | [E,B,E]4 EF | [E,E]4 [E,E]2 | [G,B,]3 [G,B,] A,2 | E,4 E,2 | %13
 [B,,B,]3 [B,,B,] [B,,B,]2 | [B,,B,] [B,,G,B,]3 [B,,A,B,]2 | [E,G,B,]6- |[M:2/4] [E,G,B,]4 | %17
[M:1/4] [E,G,=D]2 |[M:3/4] [A,C]3 [A,CE] [A,CE]2 | [A,CE]4 [A,C][A,^B,E] | %20
 [E,B,E]3 [E,B,E] [E,B,E]2 | [E,B,E]4 [E,G,][E,B,E] | [E,E]3 [E,E] [E,E]2 | [E,E]2 [E,E]2 [E,B,]2 | %24
 [B,,B,]6- | [B,,B,]4 [E,G,][E,A,E] | [E,B,E]3 [E,B,E] [E,B,E]2 | [E,G,]4 [E,B,E][E,E] | %28
 [G,B,]3 [G,B,] [A,E]2 | [E,E]4 [E,G,]2 | [B,,B,]3 [B,,B,] [B,,B,]2 | %31
 [B,,B,] [B,,G,B,]3 [B,,A,B,]2 | .[G,B,]2 z2 z2 |[M:2/4] z4 |] %34
V:3
 x6 | x6 | z2 z2 E2 | x6 | z2 z2 E2 | x6 | x6 | x6 | x6 | x6 | x6 | x6 | x6 | x6 | x6 | x6 | %16
[M:2/4] x4 |[M:1/4] x2 |[M:3/4] x6 | x6 | x6 | x6 | x6 | x6 | x6 | x6 | x6 | x6 | x6 | x6 | x6 | %31
 x6 | z B,3 C2 |[M:2/4] B,4 |] %34
V:4
 x6 | x6 | z2 z2 E,2 | z2 z2 .A,2 | z2 z2 .G,2 | x6 | x6 | x6 | x6 | z2 z2 [E,B,]2 | x6 | x6 | x6 | %13
 x6 | x6 | x6 |[M:2/4] x4 |[M:1/4] x2 |[M:3/4] x6 | x6 | x6 | x6 | x6 | x6 | x6 | x6 | x6 | x6 | %28
 x6 | x6 | x6 | x6 | E,- [E,-G,]3 [E,-A,]2 |[M:2/4] [E,G,]4 |] %34

